X:70
T: Farewell to Ould Decency
S: J.Kelly - P.O'Brien
Z: B.Black
R: reel
M: 4/4
L: 1/8
K: G
d2 BG AGEG |EGBG A2 Bc |d2 BG AGAB |dBAG EGGB |
d2 BG AGEG |EGBG A2 Bc |d2 BG AGAB |dBAG EGGD ||
G3 B d2 Bd |eaag ef g2 |G3 B d2 Bc |dega bg (3gfg |
G3 B d2 Bd |eaag ef g2 |bg (3gfg ageg |dgbg ageg ||
